img/svg/extra-img-2.svg

<svg width="16" height="16" viewBox="0 0 16 16" fill="none" xmlns="http://www.w3.org/2000/svg">
<path fill-rule="evenodd" clip-rule="evenodd" d="M4.63925 10.5956L12.0234 14.8859C10.8401 15.597 9.46737 16 8 16C6.79297 16 5.65694 15.7393 4.63925 15.2415V10.5956ZM4.04733 6.39976V14.9331C1.82261 13.7005 0.284244 11.4012 0.0475711 8.72273L4.04733 6.39976ZM16 7.94027V8.01138C16 10.7136 14.651 13.1077 12.5919 14.5299L8.59215 12.2306L16 7.94027ZM11.9529 1.06667C14.1776 2.29926 15.716 4.59852 15.9527 7.27704L11.9529 9.6V1.06667ZM3.40808 1.46963L7.40785 3.76889L0 8.03556V8.01185C0 5.28593 1.34903 2.89185 3.40808 1.46963ZM8.00047 0C9.2075 0 10.3435 0.260741 11.3612 0.758519V5.38074L3.97704 1.09037C5.1604 0.402963 6.5331 0 8.00047 0Z" fill="white"/>
</svg>

<svg width="16" height="16" fill="none" xmlns="http://www.w3.org/2000/svg"><path fill-rule="evenodd" clip-rule="evenodd" d="M4.64 10.596l7.383 4.29A7.774 7.774 0 018 16a7.6 7.6 0 01-3.36-.758v-4.646zM4.046 6.4v8.533c-2.224-1.232-3.763-3.532-4-6.21l4-2.323zM16 7.94v.071a7.91 7.91 0 01-3.408 6.519l-4-2.3L16 7.94zm-4.047-6.873c2.225 1.232 3.763 3.532 4 6.21l-4 2.323V1.067zm-8.545.403l4 2.299L0 8.036v-.024A7.922 7.922 0 013.408 1.47zM8 0c1.207 0 2.344.26 3.361.759V5.38L3.977 1.09A7.987 7.987 0 018 0z" fill="#fff"/></svg>
